fs/document_link_16_filled.svg

<svg viewBox="0 0 16 16" fill="none" xmlns="http://www.w3.org/2000/svg" height="1em" width="1em">
  <path d="M9 4.5V1H5.5C4.67157 1 4 1.67157 4 2.5V9H7.5C9.433 9 11 10.567 11 12.5C11 13.4793 10.5978 14.3647 9.94949 15H12.5C13.3284 15 14 14.3284 14 13.5V6H10.5C9.67157 6 9 5.32843 9 4.5ZM10 4.5V1.25L13.75 5H10.5C10.2239 5 10 4.77614 10 4.5ZM3.5 10C2.11929 10 1 11.1193 1 12.5C1 13.8807 2.11929 15 3.5 15H4C4.27614 15 4.5 14.7761 4.5 14.5C4.5 14.2239 4.27614 14 4 14H3.5C2.67157 14 2 13.3284 2 12.5C2 11.6716 2.67157 11 3.5 11H4C4.27614 11 4.5 10.7761 4.5 10.5C4.5 10.2239 4.27614 10 4 10H3.5ZM7 10C6.72386 10 6.5 10.2239 6.5 10.5C6.5 10.7761 6.72386 11 7 11H7.5C8.32843 11 9 11.6716 9 12.5C9 13.3284 8.32843 14 7.5 14H7C6.72386 14 6.5 14.2239 6.5 14.5C6.5 14.7761 6.72386 15 7 15H7.5C8.88071 15 10 13.8807 10 12.5C10 11.1193 8.88071 10 7.5 10H7ZM3.5 12C3.22386 12 3 12.2239 3 12.5C3 12.7761 3.22386 13 3.5 13H7.5C7.77614 13 8 12.7761 8 12.5C8 12.2239 7.77614 12 7.5 12H3.5Z" fill="#212121"/>
</svg>

<svg viewBox="0 0 16 16" fill="none" xmlns="http://www.w3.org/2000/svg" height="1em" width="1em">
  <path d="M9 4.5V1H5.5A1.5 1.5 0 0 0 4 2.5V9h3.5a3.5 3.5 0 0 1 2.45 6h2.55a1.5 1.5 0 0 0 1.5-1.5V6h-3.5A1.5 1.5 0 0 1 9 4.5Zm1 0V1.25L13.75 5H10.5a.5.5 0 0 1-.5-.5ZM3.5 10a2.5 2.5 0 0 0 0 5H4a.5.5 0 0 0 0-1h-.5a1.5 1.5 0 0 1 0-3H4a.5.5 0 0 0 0-1h-.5ZM7 10a.5.5 0 0 0 0 1h.5a1.5 1.5 0 0 1 0 3H7a.5.5 0 0 0 0 1h.5a2.5 2.5 0 0 0 0-5H7Zm-3.5 2a.5.5 0 0 0 0 1h4a.5.5 0 0 0 0-1h-4Z" fill="#212121"/>
</svg>
